lib/logo_updates/nrk-logo-nrk-klassisk-on-dark.svg

<svg width="348" height="48" viewBox="0 0 348 48" fill="none" xmlns="http://www.w3.org/2000/svg">
<path d="M0 45V3.00381H13.7802V45H0ZM32.5283 9.68773L40.4532 45H25.3721L15.9092 3.00381H24.3676C26.3072 2.97864 28.1892 3.66237 29.6607 4.92636C31.1347 6.13734 32.1473 7.81844 32.5283 9.68773ZM42.5233 45V3.00381H56.3035V45H42.5233ZM66.7116 18.9743C65.2267 18.9888 63.7656 18.6003 62.4839 17.8504C61.2193 17.1194 60.1688 16.0689 59.438 14.8041C58.6872 13.5222 58.2986 12.0607 58.3134 10.5751C58.2964 9.09861 58.6853 7.64583 59.438 6.3755C60.1766 5.12447 61.2259 4.08533 62.4839 3.35882C63.766 2.60976 65.2269 2.2213 66.7116 2.23484C68.1877 2.21895 69.6399 2.60775 70.9108 3.35882C72.1562 4.09169 73.1943 5.12996 73.9271 6.3755C74.6789 7.64618 75.0677 9.09873 75.0517 10.5751C75.0655 12.0605 74.6769 13.5218 73.9271 14.8041C73.202 16.0633 72.1627 17.113 70.9108 17.8504C69.6398 18.6029 68.1866 18.9918 66.7097 18.9743H66.7116ZM77.1807 45V3.00381H90.9621V45H77.1807ZM108.408 25.9538C108.447 25.9946 108.742 26.4776 109.295 27.403C109.848 28.3283 110.567 29.5114 111.454 30.952C112.341 32.392 113.277 33.9199 114.262 35.536C115.247 37.1521 116.174 38.6803 117.043 40.1202C117.908 41.5602 118.894 43.1867 120 45H104.859C103.912 43.4621 103.055 42.0721 102.286 40.83C101.517 39.5878 100.7 38.2471 99.8334 36.8077C98.9653 35.3698 98.1071 33.9699 97.2587 32.6081C96.4103 31.2464 95.6813 30.0536 95.0714 29.0297C94.459 28.0051 94.0348 27.3149 93.7989 26.9594C93.2139 26.0771 92.8677 25.058 92.7944 24.0019C92.853 22.9883 93.1791 22.0084 93.7397 21.1619C93.9762 20.7676 94.41 20.0675 95.0409 19.062C95.6717 18.0564 96.411 16.8637 97.2587 15.4835C98.1064 14.1034 98.9647 12.6936 99.8334 11.2543C100.702 9.81501 101.519 8.46432 102.286 7.20247C103.056 5.94193 103.914 4.54205 104.859 3.00285H120L108.289 22.1082C107.926 22.6755 107.722 23.3292 107.697 24.0019C107.736 24.7081 107.983 25.3871 108.406 25.9538H108.408Z" fill="white"/>
<path d="M167.848 3.03483H160.462L144.41 21.5292H142.204V3.03483H136V44.9867H142.204V26.0197H142.413L159.872 45.0459L168.322 44.9858L148.291 24.1871L167.848 3.03483Z" fill="#EFB4ED"/>
<path d="M182.354 40.6427C182.148 40.6652 181.941 40.6754 181.733 40.6732C181.289 40.6863 180.846 40.6054 180.434 40.4359C180.076 40.2766 179.769 40.0209 179.548 39.6973C179.292 39.3148 179.12 38.8815 179.046 38.4269C178.94 37.8227 178.89 37.2097 178.898 36.5962V0.375821L172.871 1.26215V39.2552C172.846 40.251 173.006 41.2428 173.344 42.18C173.627 42.9415 174.094 43.6214 174.703 44.1594C175.31 44.6793 176.027 45.0532 176.801 45.2525C177.659 45.4751 178.543 45.5844 179.43 45.5776C179.904 45.5776 180.356 45.5578 180.789 45.5175C181.222 45.4771 181.646 45.4189 182.059 45.3411C182.473 45.2633 182.818 45.1835 183.094 45.1048L183.684 40.4359C183.448 40.4766 183.212 40.516 182.975 40.5541C182.739 40.5922 182.532 40.6217 182.354 40.6427Z" fill="#EFB4ED"/>
<path d="M215.295 41.2643C214.863 41.3039 214.428 41.2385 214.027 41.0737C213.626 40.909 213.27 40.6496 212.991 40.3178C212.442 39.3715 212.215 38.2735 212.341 37.1872L212.459 25.0153C212.472 23.7389 212.313 22.4666 211.986 21.2327C211.699 20.1512 211.218 19.1307 210.568 18.2202C209.911 17.3295 209.076 16.5851 208.116 16.034C207.001 15.4002 205.795 14.9418 204.541 14.675C203.008 14.3437 201.442 14.1851 199.873 14.2022C198.629 14.2017 197.386 14.2806 196.152 14.4386C194.985 14.5852 193.83 14.812 192.694 15.1172C191.641 15.4034 190.606 15.749 189.592 16.1522L188.883 21.1746C189.868 20.8188 190.803 20.5233 191.69 20.2883C192.576 20.0532 193.433 19.8563 194.26 19.6974C195.07 19.5421 195.889 19.4335 196.712 19.3724C197.519 19.3133 198.317 19.2838 199.106 19.2838C200.311 19.2579 201.513 19.3971 202.68 19.6974C203.532 19.9104 204.315 20.3376 204.955 20.9383C205.525 21.5222 205.932 22.2449 206.136 23.0348C206.389 24.0092 206.508 25.0132 206.492 26.0197L206.485 27.5029L199.578 27.9696C197.216 28.0356 194.888 28.5571 192.724 29.5059C191.104 30.2145 189.705 31.3475 188.676 32.7852C187.802 34.0643 187.339 35.5791 187.347 37.1281C187.336 38.5812 187.691 40.0136 188.381 41.2928C189.103 42.6076 190.191 43.6853 191.512 44.3958C193.124 45.2343 194.926 45.6415 196.742 45.5776C198.443 45.617 200.137 45.336 201.735 44.7494C203.116 44.2085 204.38 43.406 205.457 42.3859C205.866 41.9934 206.254 41.58 206.619 41.1471C206.734 41.7591 206.95 42.3475 207.259 42.8881C207.786 43.7926 208.596 44.4987 209.564 44.8971C210.634 45.3266 211.779 45.5373 212.931 45.5166C213.286 45.5166 213.631 45.5077 213.965 45.487C214.294 45.468 214.621 45.4188 214.94 45.3402C215.256 45.2605 215.54 45.1916 215.797 45.1335C216.028 45.0809 216.255 45.0118 216.477 44.9267L217.127 40.9669C216.801 41.0793 216.464 41.1587 216.122 41.2042C215.848 41.2411 215.572 41.2612 215.295 41.2643ZM205.457 38.6053C204.816 39.1113 204.123 39.5468 203.389 39.9042C202.658 40.2604 201.883 40.519 201.084 40.6733C200.257 40.8327 199.417 40.9119 198.574 40.9096C197.611 40.9373 196.653 40.756 195.767 40.3779C195.046 40.0643 194.438 39.5384 194.024 38.8702C193.614 38.162 193.41 37.354 193.433 36.5363C193.376 35.5515 193.646 34.5756 194.201 33.7602C194.844 33.0092 195.716 32.4902 196.682 32.283C198.192 31.9272 199.741 31.7682 201.291 31.8102H206.465L206.439 37.6747C206.139 38.0126 205.811 38.3239 205.457 38.6053Z" fill="#EFB4ED"/>
<path d="M241.41 31.3966C240.806 30.755 240.109 30.2071 239.343 29.7708C238.549 29.3173 237.719 28.9318 236.861 28.6185C236.231 28.4216 235.61 28.2148 235 27.9981C234.389 27.7814 233.778 27.5845 233.168 27.4072C232.556 27.23 231.965 27.0428 231.395 26.8459C230.859 26.6638 230.337 26.4464 229.83 26.195C229.344 25.9368 228.88 25.6404 228.441 25.3087C228.036 25.0036 227.694 24.6218 227.436 24.1851C227.176 23.737 227.043 23.2262 227.051 22.7079C227.036 22.1384 227.18 21.576 227.467 21.0839C227.775 20.6001 228.203 20.2034 228.708 19.9317C229.326 19.592 229.994 19.3524 230.687 19.2217C231.554 19.0558 232.434 18.977 233.317 18.9863C233.749 18.9863 234.223 19.007 234.734 19.0455C235.245 19.0839 235.807 19.1537 236.419 19.2522C237.03 19.3507 237.638 19.4788 238.25 19.6353C238.863 19.7919 239.481 19.9711 240.112 20.167C240.695 20.3475 241.267 20.5646 241.823 20.817L242.239 16.0319C241.49 15.7168 240.751 15.4408 240.023 15.2038C239.295 14.9687 238.556 14.7714 237.807 14.6128C237.076 14.4579 236.336 14.3494 235.591 14.2879C234.861 14.2288 234.144 14.1993 233.434 14.1993C231.802 14.1828 230.174 14.3713 228.589 14.7606C227.233 15.0902 225.945 15.6498 224.778 16.4151C223.72 17.1141 222.856 18.0694 222.266 19.1921C221.65 20.4292 221.345 21.7987 221.38 23.1805C221.362 24.1759 221.522 25.1663 221.853 26.1053C222.134 26.8926 222.554 27.6232 223.094 28.2621C223.619 28.8647 224.226 29.3917 224.896 29.8279C225.594 30.2858 226.336 30.6718 227.112 30.98C227.544 31.1376 227.997 31.2948 228.471 31.4517C228.944 31.6103 229.406 31.758 229.86 31.8949C230.314 32.0318 230.754 32.1717 231.189 32.3086C231.625 32.4455 232.045 32.5852 232.459 32.7221C232.873 32.859 233.276 32.989 233.67 33.1072C234.199 33.2941 234.713 33.521 235.207 33.7858C235.641 34.0158 236.047 34.2935 236.419 34.6139C236.745 34.9002 237.007 35.2527 237.187 35.648C237.366 36.0572 237.457 36.5 237.452 36.9469C237.473 37.3839 237.396 37.8202 237.228 38.2239C237.059 38.6276 236.803 38.9887 236.477 39.2808C235.746 39.8924 234.872 40.3094 233.936 40.4931C232.84 40.7346 231.721 40.8532 230.599 40.8466C229.897 40.8421 229.196 40.7932 228.5 40.6999C227.733 40.6015 226.925 40.4636 226.078 40.2863C225.232 40.109 224.365 39.8923 223.478 39.6363C222.592 39.3803 221.695 39.0947 220.79 38.7795L221.025 43.8019C222.049 44.1571 222.985 44.4427 223.832 44.6587C224.68 44.8747 225.488 45.0622 226.256 45.221C226.995 45.3745 227.746 45.4733 228.5 45.5165C229.229 45.5572 229.967 45.5772 230.716 45.5765C232.364 45.585 234.009 45.4163 235.621 45.0733C237.04 44.7855 238.399 44.2559 239.639 43.5075C240.756 42.8253 241.681 41.87 242.327 40.7314C243.003 39.4808 243.339 38.0746 243.3 36.6535C243.325 35.617 243.155 34.5851 242.799 33.6115C242.481 32.7916 242.01 32.0398 241.41 31.3966Z" fill="#EFB4ED"/>
<path d="M269.122 31.3967C268.517 30.7553 267.819 30.2074 267.053 29.7708C266.26 29.317 265.43 28.9315 264.571 28.6185C263.941 28.4216 263.32 28.2148 262.71 27.9981C262.099 27.7815 261.488 27.5845 260.878 27.4073C260.267 27.23 259.676 27.0428 259.105 26.8459C258.569 26.6636 258.047 26.4463 257.54 26.195C257.054 25.9368 256.589 25.6404 256.151 25.3087C255.746 25.0036 255.405 24.6218 255.148 24.1851C254.886 23.7372 254.753 23.2262 254.762 22.7079C254.747 22.1385 254.89 21.5761 255.177 21.0839C255.485 20.5997 255.912 20.2028 256.418 19.9317C257.036 19.592 257.704 19.3525 258.397 19.2217C259.263 19.0559 260.144 18.9771 261.026 18.9863C261.459 18.9863 261.932 19.0071 262.445 19.0455C262.958 19.0839 263.517 19.1538 264.129 19.2522C264.74 19.3507 265.349 19.4788 265.959 19.6354C266.57 19.7919 267.19 19.9711 267.822 20.1671C268.406 20.3475 268.978 20.5646 269.534 20.8171L269.949 16.032C269.2 15.7168 268.461 15.4408 267.733 15.2038C267.005 14.9685 266.265 14.7712 265.517 14.6129C264.786 14.4579 264.046 14.3494 263.301 14.2879C262.571 14.2288 261.852 14.1993 261.145 14.1993C259.513 14.1826 257.885 14.3712 256.3 14.7606C254.944 15.0899 253.655 15.6496 252.488 16.4151C251.431 17.1142 250.567 18.0694 249.977 19.1921C249.36 20.4289 249.055 21.7986 249.091 23.1806C249.073 24.176 249.233 25.1665 249.565 26.1054C249.845 26.8932 250.265 27.6239 250.805 28.2621C251.331 28.8652 251.937 29.3921 252.608 29.8279C253.305 30.2859 254.048 30.6718 254.823 30.98C255.255 31.1376 255.708 31.2948 256.182 31.4517C256.655 31.6103 257.117 31.7581 257.571 31.8949C258.025 32.0318 258.466 32.1717 258.899 32.3086C259.333 32.4455 259.756 32.5853 260.17 32.7221C260.583 32.859 260.987 32.989 261.382 33.1072C261.91 33.2941 262.424 33.521 262.917 33.7858C263.351 34.0153 263.758 34.2931 264.13 34.6139C264.456 34.8998 264.718 35.2525 264.897 35.648C265.078 36.0568 265.169 36.4998 265.164 36.9469C265.185 37.384 265.108 37.8203 264.939 38.2241C264.771 38.6278 264.514 38.9889 264.188 39.2809C263.457 39.8925 262.582 40.3095 261.647 40.4931C260.551 40.7347 259.432 40.8533 258.31 40.8466C257.608 40.8421 256.907 40.7932 256.212 40.7C255.444 40.6015 254.636 40.4636 253.789 40.2863C252.942 40.1091 252.076 39.8924 251.189 39.6363C250.303 39.3803 249.407 39.0947 248.501 38.7796L248.738 43.8019C249.76 44.1571 250.696 44.4427 251.544 44.6587C252.392 44.8747 253.2 45.0622 253.967 45.2211C254.707 45.3746 255.457 45.4734 256.212 45.5166C256.94 45.5573 257.679 45.5772 258.428 45.5765C260.075 45.5852 261.719 45.4165 263.331 45.0733C264.75 44.7858 266.109 44.2561 267.349 43.5075C268.467 42.8256 269.392 41.8702 270.038 40.7315C270.715 39.481 271.051 38.0747 271.012 36.6535C271.037 35.6169 270.867 34.585 270.51 33.6115C270.193 32.7914 269.721 32.0396 269.122 31.3967Z" fill="#EFB4ED"/>
<path d="M283.332 1.8824C282.719 1.5077 282.013 1.31322 281.294 1.32113C280.567 1.31558 279.852 1.50968 279.226 1.8824C278.61 2.24302 278.093 2.7505 277.721 3.35959C277.345 3.97224 277.15 4.67862 277.158 5.3972C277.153 6.12507 277.347 6.84049 277.721 7.46523C278.082 8.08311 278.602 8.59313 279.226 8.94241C279.858 9.29673 280.57 9.48008 281.294 9.47423C282.009 9.48232 282.713 9.29864 283.332 8.94241C283.94 8.59028 284.44 8.07972 284.781 7.46523C285.135 6.83394 285.318 6.1211 285.312 5.3972C285.321 4.68268 285.137 3.97895 284.781 3.35959C284.429 2.75349 283.931 2.24551 283.332 1.8824Z" fill="#EFB4ED"/>
<path d="M278.162 44.9858H284.189V14.2605L278.162 15.1468V44.9858Z" fill="#EFB4ED"/>
<path d="M312.078 31.3967C311.473 30.755 310.776 30.207 310.01 29.7708C309.216 29.3171 308.386 28.9316 307.527 28.6185C306.898 28.4216 306.277 28.2148 305.667 27.9981C305.056 27.7815 304.446 27.5845 303.834 27.4073C303.224 27.23 302.633 27.0428 302.062 26.8459C301.526 26.6638 301.003 26.4464 300.497 26.195C300.011 25.937 299.546 25.6406 299.107 25.3087C298.702 25.0036 298.361 24.6218 298.104 24.1851C297.843 23.7372 297.71 23.2262 297.719 22.7079C297.703 22.1385 297.847 21.5761 298.133 21.0839C298.441 20.5997 298.869 20.2029 299.374 19.9317C299.992 19.5921 300.66 19.3525 301.354 19.2217C302.22 19.0559 303.101 18.977 303.983 18.9863C304.415 18.9863 304.889 19.0071 305.401 19.0455C305.913 19.0839 306.474 19.1538 307.085 19.2522C307.697 19.3507 308.305 19.4788 308.916 19.6354C309.526 19.7919 310.147 19.9711 310.778 20.1671C311.362 20.3475 311.934 20.5646 312.491 20.8171L312.905 16.032C312.156 15.7168 311.417 15.4408 310.689 15.2038C309.962 14.9685 309.222 14.7711 308.474 14.6129C307.743 14.4579 307.003 14.3494 306.258 14.2879C305.528 14.2288 304.81 14.1993 304.101 14.1993C302.469 14.1826 300.841 14.3712 299.256 14.7606C297.9 15.0899 296.611 15.6495 295.445 16.4151C294.387 17.1142 293.523 18.0695 292.934 19.1921C292.316 20.4289 292.012 21.7986 292.047 23.1806C292.029 24.176 292.19 25.1665 292.521 26.1054C292.801 26.8932 293.222 27.6239 293.762 28.2621C294.287 28.865 294.894 29.3919 295.564 29.8279C296.262 30.2859 297.004 30.6718 297.78 30.98C298.212 31.1376 298.665 31.2948 299.139 31.4517C299.613 31.6086 300.076 31.7564 300.527 31.8949C300.979 32.0341 301.422 32.172 301.856 32.3086C302.29 32.4452 302.713 32.583 303.126 32.7221C303.54 32.8607 303.944 32.989 304.339 33.1072C304.867 33.2941 305.381 33.521 305.875 33.7858C306.308 34.0156 306.715 34.2933 307.086 34.6139C307.413 34.8997 307.675 35.2524 307.853 35.648C308.034 36.0568 308.125 36.4998 308.12 36.9469C308.141 37.3839 308.064 37.8202 307.896 38.2239C307.727 38.6277 307.471 38.9887 307.145 39.2809C306.413 39.8923 305.539 40.3093 304.603 40.4931C303.508 40.7347 302.388 40.8533 301.266 40.8466C300.564 40.8421 299.864 40.7932 299.168 40.7C298.4 40.6015 297.593 40.4636 296.746 40.2863C295.899 40.1091 295.032 39.8924 294.145 39.6363C293.26 39.3803 292.364 39.0947 291.457 38.7796L291.694 43.8019C292.717 44.1571 293.653 44.4427 294.5 44.6587C295.348 44.8747 296.156 45.0622 296.923 45.2211C297.663 45.3746 298.414 45.4734 299.168 45.5166C299.896 45.5573 300.635 45.5772 301.384 45.5765C303.032 45.5852 304.676 45.4165 306.287 45.0733C307.707 44.7856 309.066 44.2559 310.306 43.5075C311.424 42.8252 312.349 41.8699 312.995 40.7315C313.671 39.4809 314.007 38.0747 313.969 36.6535C313.993 35.617 313.823 34.585 313.467 33.6115C313.149 32.7914 312.678 32.0396 312.078 31.3967Z" fill="#EFB4ED"/>
<path d="M339.322 44.9858H347.122L332.789 28.8352L346.826 14.8513H339.44L329.329 25.9597H327.15V0.375L321.123 1.26121V44.9858H327.15V30.5095H327.249L339.322 44.9858Z" fill="#EFB4ED"/>
</svg>

<svg xmlns="http://www.w3.org/2000/svg" viewBox="0 0 348 48"><path fill="#fff" d="M0 45V3.004h13.78V45H0ZM32.528 9.688 40.453 45h-15.08L15.908 3.004h8.459a7.965 7.965 0 0 1 5.293 1.922 8.31 8.31 0 0 1 2.867 4.762ZM42.523 45V3.004h13.78V45h-13.78Zm24.189-26.026a8.213 8.213 0 0 1-4.228-1.124 8.336 8.336 0 0 1-3.046-3.046 8.206 8.206 0 0 1-1.125-4.229 8.056 8.056 0 0 1 1.125-4.2 8.437 8.437 0 0 1 3.046-3.016 8.232 8.232 0 0 1 4.228-1.124 8.083 8.083 0 0 1 4.199 1.124 8.503 8.503 0 0 1 3.016 3.016 8.075 8.075 0 0 1 1.125 4.2 8.226 8.226 0 0 1-1.125 4.23 8.4 8.4 0 0 1-3.016 3.045 8.059 8.059 0 0 1-4.201 1.124h.002ZM77.18 45V3.004h13.781V45H77.181Zm31.227-19.046c.039.04.334.524.887 1.449.553.925 1.272 2.108 2.159 3.549a1143.28 1143.28 0 0 1 5.589 9.168A854.89 854.89 0 0 0 120 45h-15.141c-.947-1.538-1.804-2.928-2.573-4.17a382.214 382.214 0 0 1-2.453-4.022 351.934 351.934 0 0 0-2.574-4.2 213.445 213.445 0 0 1-2.188-3.578 62.753 62.753 0 0 0-1.272-2.07 6.119 6.119 0 0 1-1.005-2.958 5.744 5.744 0 0 1 .946-2.84c.236-.394.67-1.095 1.3-2.1.632-1.006 1.371-2.198 2.219-3.579a636.03 636.03 0 0 0 2.574-4.229c.869-1.439 1.686-2.79 2.453-4.052.77-1.26 1.628-2.66 2.573-4.2H120l-11.711 19.106a3.773 3.773 0 0 0-.592 1.894c.039.706.286 1.385.709 1.952h.002Z"/><path fill="#EFB4ED" d="M167.848 3.035h-7.386L144.41 21.529h-2.206V3.035H136v41.952h6.204V26.02h.209l17.459 19.026 8.45-.06-20.031-20.799 19.557-21.152ZM182.354 40.643a5.207 5.207 0 0 1-.621.03 3.17 3.17 0 0 1-1.299-.237 2.113 2.113 0 0 1-.886-.739 3.214 3.214 0 0 1-.502-1.27 9.852 9.852 0 0 1-.148-1.83V.375l-6.027.886v37.993a8.027 8.027 0 0 0 .473 2.925c.283.761.75 1.441 1.359 1.98.607.52 1.324.893 2.098 1.093a10.16 10.16 0 0 0 2.629.325c.474 0 .926-.02 1.359-.06a13.777 13.777 0 0 0 2.305-.413l.59-4.67c-.236.042-.472.081-.709.12-.236.037-.443.067-.621.088ZM215.295 41.264a2.69 2.69 0 0 1-2.304-.946 5.073 5.073 0 0 1-.65-3.13l.118-12.173a14.201 14.201 0 0 0-.473-3.782 9.284 9.284 0 0 0-1.418-3.013 7.99 7.99 0 0 0-2.452-2.186 12.498 12.498 0 0 0-3.575-1.359 21.016 21.016 0 0 0-4.668-.473c-1.244 0-2.487.079-3.721.237a25.645 25.645 0 0 0-3.458.678 28.926 28.926 0 0 0-3.102 1.035l-.709 5.023c.985-.356 1.92-.652 2.807-.887a37.969 37.969 0 0 1 2.57-.59c.81-.156 1.629-.265 2.452-.326a32.77 32.77 0 0 1 2.394-.088 13.2 13.2 0 0 1 3.574.413c.852.213 1.635.64 2.275 1.241.57.584.977 1.307 1.181 2.097.253.974.372 1.978.356 2.985l-.007 1.483-6.907.467c-2.362.066-4.69.587-6.854 1.536a9.815 9.815 0 0 0-4.048 3.28 7.627 7.627 0 0 0-1.329 4.342 8.634 8.634 0 0 0 1.034 4.165 7.772 7.772 0 0 0 3.131 3.103 10.532 10.532 0 0 0 5.23 1.182c1.701.039 3.395-.242 4.993-.829a11.525 11.525 0 0 0 3.722-2.363 16.11 16.11 0 0 0 1.162-1.239c.115.612.331 1.2.64 1.741a4.768 4.768 0 0 0 2.305 2.01c1.07.429 2.215.64 3.367.619.355 0 .7-.01 1.034-.03.329-.019.656-.068.975-.147.316-.08.6-.148.857-.207.231-.052.458-.121.68-.206l.65-3.96a5.18 5.18 0 0 1-1.005.237c-.274.037-.55.057-.827.06Zm-9.838-2.659c-.641.506-1.334.942-2.068 1.3a9.278 9.278 0 0 1-2.305.768 13.07 13.07 0 0 1-2.51.237 6.664 6.664 0 0 1-2.807-.532 3.863 3.863 0 0 1-1.743-1.508 4.41 4.41 0 0 1-.591-2.334 4.474 4.474 0 0 1 .768-2.776 4.513 4.513 0 0 1 2.481-1.477 17.972 17.972 0 0 1 4.609-.473h5.174l-.026 5.865c-.3.338-.628.649-.982.93ZM241.41 31.397a8.864 8.864 0 0 0-2.067-1.626 16.225 16.225 0 0 0-2.482-1.152 51.09 51.09 0 0 1-1.861-.62 33.217 33.217 0 0 0-1.832-.592 36.647 36.647 0 0 1-1.773-.561c-.536-.182-1.058-.4-1.565-.651a10.39 10.39 0 0 1-1.389-.886 3.876 3.876 0 0 1-1.005-1.124 2.856 2.856 0 0 1-.385-1.477 3.063 3.063 0 0 1 .416-1.624c.308-.484.736-.88 1.241-1.152a6.678 6.678 0 0 1 1.979-.71 13.243 13.243 0 0 1 2.63-.236c.432 0 .906.021 1.417.06a20.25 20.25 0 0 1 1.685.206c.611.099 1.219.227 1.831.383.613.157 1.231.336 1.862.532.583.18 1.155.398 1.711.65l.416-4.785a28.353 28.353 0 0 0-2.216-.828 22.117 22.117 0 0 0-2.216-.591 17.722 17.722 0 0 0-2.216-.325c-.73-.06-1.447-.089-2.157-.089a19.488 19.488 0 0 0-4.845.562c-1.356.33-2.644.889-3.811 1.654a7.522 7.522 0 0 0-2.512 2.777 8.468 8.468 0 0 0-.886 3.988 8.343 8.343 0 0 0 .473 2.925 6.97 6.97 0 0 0 1.241 2.157 8.648 8.648 0 0 0 1.802 1.566c.698.458 1.44.844 2.216 1.152.432.158.885.315 1.359.472.473.158.935.306 1.389.443.454.137.894.277 1.329.414.436.137.856.276 1.27.413.414.137.817.267 1.211.385.529.187 1.043.414 1.537.679.434.23.84.508 1.212.828.326.286.588.639.768 1.034.179.41.27.852.265 1.299a2.956 2.956 0 0 1-.975 2.334 5.658 5.658 0 0 1-2.541 1.212c-1.096.242-2.215.36-3.337.354a16.598 16.598 0 0 1-2.099-.147 31.28 31.28 0 0 1-2.422-.414 36.056 36.056 0 0 1-2.6-.65 52.404 52.404 0 0 1-2.688-.857l.235 5.023c1.024.355 1.96.64 2.807.857.848.216 1.656.403 2.424.562.739.154 1.49.252 2.244.296.729.04 1.467.06 2.216.06 1.648.008 3.293-.16 4.905-.504a12.637 12.637 0 0 0 4.018-1.566 7.712 7.712 0 0 0 2.688-2.776 8.108 8.108 0 0 0 .973-4.078 8.277 8.277 0 0 0-.501-3.041 6.909 6.909 0 0 0-1.389-2.215ZM269.122 31.397a8.909 8.909 0 0 0-2.069-1.626 16.08 16.08 0 0 0-2.482-1.152 51.09 51.09 0 0 1-1.861-.62 33.215 33.215 0 0 0-1.832-.592 37.48 37.48 0 0 1-1.773-.561c-.536-.182-1.058-.4-1.565-.651a10.326 10.326 0 0 1-1.389-.886 3.855 3.855 0 0 1-1.003-1.124 2.828 2.828 0 0 1-.386-1.477 3.063 3.063 0 0 1 .415-1.624 3.34 3.34 0 0 1 1.241-1.152 6.68 6.68 0 0 1 1.979-.71 13.248 13.248 0 0 1 2.629-.236 19.164 19.164 0 0 1 3.103.266c.611.099 1.22.227 1.83.383.611.157 1.231.336 1.863.532.584.18 1.156.398 1.712.65l.415-4.785a28.315 28.315 0 0 0-2.216-.828 22.054 22.054 0 0 0-2.216-.591 17.704 17.704 0 0 0-2.216-.325 26.72 26.72 0 0 0-2.156-.089 19.474 19.474 0 0 0-4.845.562c-1.356.329-2.645.889-3.812 1.654a7.529 7.529 0 0 0-2.511 2.777 8.444 8.444 0 0 0-.886 3.989 8.32 8.32 0 0 0 .474 2.924c.28.788.7 1.519 1.24 2.157a8.627 8.627 0 0 0 1.803 1.566c.697.458 1.44.844 2.215 1.152.432.158.885.315 1.359.472.473.158.935.306 1.389.443.454.137.895.277 1.328.414.434.137.857.276 1.271.413.413.137.817.267 1.212.385a11.01 11.01 0 0 1 1.535.679c.434.23.841.507 1.213.828.326.286.588.639.767 1.034.181.409.272.852.267 1.299a2.943 2.943 0 0 1-.976 2.334 5.661 5.661 0 0 1-2.541 1.212c-1.096.242-2.215.36-3.337.354a16.588 16.588 0 0 1-2.098-.147 31.271 31.271 0 0 1-2.423-.414 35.821 35.821 0 0 1-2.6-.65 52.817 52.817 0 0 1-2.688-.856l.237 5.022c1.022.355 1.958.64 2.806.857.848.216 1.656.403 2.423.562.74.154 1.49.252 2.245.296.728.04 1.467.06 2.216.06 1.647.008 3.291-.16 4.903-.504a12.625 12.625 0 0 0 4.018-1.566 7.703 7.703 0 0 0 2.689-2.776 8.099 8.099 0 0 0 .974-4.078 8.256 8.256 0 0 0-.502-3.041 6.9 6.9 0 0 0-1.388-2.215ZM283.332 1.882a3.826 3.826 0 0 0-2.038-.56 3.983 3.983 0 0 0-2.068.56 4.322 4.322 0 0 0-1.505 1.478 3.814 3.814 0 0 0-.563 2.037 3.972 3.972 0 0 0 .563 2.068 4.014 4.014 0 0 0 1.505 1.477 4.158 4.158 0 0 0 2.068.532 3.996 3.996 0 0 0 2.038-.532 3.883 3.883 0 0 0 1.449-1.477 4.158 4.158 0 0 0 .531-2.068 3.989 3.989 0 0 0-.531-2.037 4.184 4.184 0 0 0-1.449-1.478ZM278.162 44.986h6.027V14.26l-6.027.886v29.839ZM312.078 31.397a8.885 8.885 0 0 0-2.068-1.626 16.154 16.154 0 0 0-2.483-1.152 51.688 51.688 0 0 1-1.86-.62 32.707 32.707 0 0 0-1.833-.592 37.806 37.806 0 0 1-1.772-.561c-.536-.182-1.059-.4-1.565-.651a10.36 10.36 0 0 1-1.39-.886 3.855 3.855 0 0 1-1.003-1.124 2.836 2.836 0 0 1-.385-1.477 3.062 3.062 0 0 1 .414-1.624 3.349 3.349 0 0 1 1.241-1.152 6.68 6.68 0 0 1 1.98-.71 13.241 13.241 0 0 1 2.629-.236 19.138 19.138 0 0 1 3.102.266c.612.099 1.22.227 1.831.383.61.157 1.231.336 1.862.532.584.18 1.156.398 1.713.65l.414-4.785a28.315 28.315 0 0 0-2.216-.828 21.938 21.938 0 0 0-2.215-.591 17.704 17.704 0 0 0-2.216-.325c-.73-.06-1.448-.089-2.157-.089a19.474 19.474 0 0 0-4.845.562 12.18 12.18 0 0 0-3.811 1.654 7.512 7.512 0 0 0-2.511 2.777 8.444 8.444 0 0 0-.887 3.989 8.344 8.344 0 0 0 .474 2.924c.28.788.701 1.519 1.241 2.157a8.634 8.634 0 0 0 1.802 1.566c.698.458 1.44.844 2.216 1.152.432.158.885.315 1.359.472.474.157.937.304 1.388.443.452.14.895.277 1.329.414.434.136.857.274 1.27.413.414.139.818.267 1.213.385.528.187 1.042.414 1.536.679.433.23.84.507 1.211.828a3.02 3.02 0 0 1 1.034 2.333 2.956 2.956 0 0 1-.975 2.334 5.669 5.669 0 0 1-2.542 1.212c-1.095.242-2.215.36-3.337.354a16.6 16.6 0 0 1-2.098-.147 31.25 31.25 0 0 1-2.422-.414 35.844 35.844 0 0 1-2.601-.65 53.462 53.462 0 0 1-2.688-.856l.237 5.022a35.02 35.02 0 0 0 2.806.857c.848.216 1.656.403 2.423.562.74.154 1.491.252 2.245.296.728.04 1.467.06 2.216.06 1.648.008 3.292-.16 4.903-.504a12.63 12.63 0 0 0 4.019-1.566 7.709 7.709 0 0 0 2.689-2.776 8.12 8.12 0 0 0 .974-4.078 8.298 8.298 0 0 0-.502-3.041 6.903 6.903 0 0 0-1.389-2.215ZM339.322 44.986h7.8l-14.333-16.15 14.037-13.985h-7.386L329.329 25.96h-2.179V.375l-6.027.886v43.725h6.027V30.51h.099l12.073 14.476Z"/></svg>
